X:2043
L:1/8
M:6/8
K:Bb
 B2 B B2 c | d2 e fed | f2 g a2 b | (d'c').b (ag).f | d'2 d' c'2 b | b2 a{a} g2 f | g2 b (c'b).g | 
 f2 e (de.c) | B2 b (bc').a | (bf).d (fe).c | B3 b3 | B3 b2 b | d'2 d' c'2 b | b2 a{a} g2 f | 
 g2 a (ba).g | (fg).e (de).c | B2 b bc'b | b3 ||

